icon-themes/breeze_svg/cmd/sc_graphicfilterremovenoise.svg

<svg viewBox="0 0 16 16" xmlns="http://www.w3.org/2000/svg"><path d="m12.029297 1.8554688-.771485.6308593a11.000019 11 0 0 1 1.742188 5.9394531 11.000019 11 0 0 1 -1.75 5.9316408l.783203.642578a12.000019 11.999998 0 0 0 1.966797-6.5742188 12.000019 11.999998 0 0 0 -1.970703-6.5703124z" fill="#b3b3b3"/><path d="m8 2-5 4h-1v4h1l5 4h1v-.46875-5.53125-5.53125-.46875zm0 1.28125v4.71875 4.71875l-4-3.1875v-1.53125-1.53125zm2.689453.40625-.7812499.6386719a8.000012 7.9999986 0 0 1 1.0917969 4.015625 8.000012 7.9999986 0 0 1 -1.0898438 4.0175781l.7812498.640625a9.0000135 8.9999984 0 0 0 1.308594-4.6582031 9.0000135 8.9999984 0 0 0 -1.310547-4.6542969z" fill="#4d4d4d"/></svg>

<svg xmlns="http://www.w3.org/2000/svg" viewBox="0 0 16 16">
 <path 
     style="fill:#b3b3b3" 
     d="M 12.029297 1.8554688 L 11.257812 2.4863281 A 11.000019 11 0 0 1 13 8.4257812 A 11.000019 11 0 0 1 11.25 14.357422 L 12.033203 15 A 12.000019 11.999998 0 0 0 14 8.4257812 A 12.000019 11.999998 0 0 0 12.029297 1.8554688 z "
     />
 <path 
     style="fill:#4d4d4d" 
     d="M 8 2 L 3 6 L 2 6 L 2 10 L 3 10 L 8 14 L 9 14 L 9 13.53125 L 9 8 L 9 2.46875 L 9 2 L 8 2 z M 8 3.28125 L 8 8 L 8 12.71875 L 4 9.53125 L 4 8 L 4 6.46875 L 8 3.28125 z M 10.689453 3.6875 L 9.9082031 4.3261719 A 8.000012 7.9999986 0 0 1 11 8.3417969 A 8.000012 7.9999986 0 0 1 9.9101562 12.359375 L 10.691406 13 A 9.0000135 8.9999984 0 0 0 12 8.3417969 A 9.0000135 8.9999984 0 0 0 10.689453 3.6875 z "
     />
 </svg>
